X: 2
T: Timmy Clifford's
C: J-66
Z: Transcribed to abc by Mary Lou Knack
R: jig
M: 6/8
K: G
"G"G,B,D "C"E2D| EGF "D"GDB,| "G"G,B,D "C"C2B| "D"AGF "G"G3|
"G"G,B,D "C"E2D| EGF "D"GAB| "G"d3 B3|1 "D"AGF "G"G3 :|2 "D"AGF "G"GBd|]
|: \
"C"efe "G"d2B| BAG GBd| "C"efe "G"d2B| BAG "D"A2g/f/|
"C"efe "G"d2B| BAG GAB| "C"c3 "G"B3|1 "D"AGF "G"GBd :|2 "D"AGF "G"GDB,|]
%%text 08/8/2009 


#include "LeftHeader.h"
%
% ---------- set 96 ----------
% Road to California (D) / Far From Home (G) / Bus Stop (Am)

%%textfont       Times-Bold 18.0
%%text Set 96
%%textfont       Times-Roman 7.0
$SmallLMargin
$SmallRMargin
%%scale .9

